src/gui/emoticons/laugh.svg

<svg xmlns="http://www.w3.org/2000/svg" xmlns:xlink="http://www.w3.org/1999/xlink" width="16pt" height="16pt" version="1.1" viewBox="0 0 16 16"><defs><linearGradient id="linear0" x1="64" x2="64" y1="19.717" y2="107.7" gradientTransform="matrix(0.125,0,0,0.125,0,0)" gradientUnits="userSpaceOnUse"><stop offset=".5" style="stop-color:#fee133;stop-opacity:1"/><stop offset=".612" style="stop-color:#fede32;stop-opacity:1"/><stop offset=".708" style="stop-color:#fcd32f;stop-opacity:1"/><stop offset=".797" style="stop-color:#fac12b;stop-opacity:1"/><stop offset=".883" style="stop-color:#f7a924;stop-opacity:1"/><stop offset=".9" style="stop-color:#f6a323;stop-opacity:1"/></linearGradient><clipPath id="clip1"><path d="M 1 7 L 14 7 L 14 13 L 1 13 Z M 1 7"/></clipPath><clipPath id="clip2"><path d="M 7.933594 7.816406 C 5.96875 7.816406 4.144531 7.652344 2.621094 7.371094 C 2.246094 7.300781 1.910156 7.632812 1.988281 8.007812 C 2.492188 10.484375 4.929688 12.519531 7.929688 12.519531 C 11.214844 12.519531 13.421875 10.417969 13.882812 8 C 13.953125 7.625 13.621094 7.300781 13.246094 7.371094 C 11.722656 7.652344 9.898438 7.816406 7.933594 7.816406 Z M 7.933594 7.816406"/></clipPath><clipPath id="clip3"><path d="M 1 7 L 14 7 L 14 10 L 1 10 Z M 1 7"/></clipPath><clipPath id="clip4"><path d="M 7.933594 7.816406 C 5.96875 7.816406 4.144531 7.652344 2.621094 7.371094 C 2.246094 7.300781 1.910156 7.632812 1.988281 8.007812 C 2.492188 10.484375 4.929688 12.519531 7.929688 12.519531 C 11.214844 12.519531 13.421875 10.417969 13.882812 8 C 13.953125 7.625 13.621094 7.300781 13.246094 7.371094 C 11.722656 7.652344 9.898438 7.816406 7.933594 7.816406 Z M 7.933594 7.816406"/></clipPath><clipPath id="clip5"><path d="M 4 10 L 12 10 L 12 13 L 4 13 Z M 4 10"/></clipPath><clipPath id="clip6"><path d="M 7.933594 7.816406 C 5.96875 7.816406 4.144531 7.652344 2.621094 7.371094 C 2.246094 7.300781 1.910156 7.632812 1.988281 8.007812 C 2.492188 10.484375 4.929688 12.519531 7.929688 12.519531 C 11.214844 12.519531 13.421875 10.417969 13.882812 8 C 13.953125 7.625 13.621094 7.300781 13.246094 7.371094 C 11.722656 7.652344 9.898438 7.816406 7.933594 7.816406 Z M 7.933594 7.816406"/></clipPath><clipPath id="clip7"><path d="M 1 7 L 14 7 L 14 13 L 1 13 Z M 1 7"/></clipPath><clipPath id="clip8"><path d="M 7.933594 7.816406 C 5.96875 7.816406 4.144531 7.652344 2.621094 7.371094 C 2.246094 7.300781 1.910156 7.632812 1.988281 8.007812 C 2.492188 10.484375 4.929688 12.519531 7.929688 12.519531 C 11.214844 12.519531 13.421875 10.417969 13.882812 8 C 13.953125 7.625 13.621094 7.300781 13.246094 7.371094 C 11.722656 7.652344 9.898438 7.816406 7.933594 7.816406 Z M 7.933594 7.816406"/></clipPath><clipPath id="clip9"><path d="M 1.28125 5.8125 L 1.28125 7.671875 C 3.328125 8.875 5.574219 9.542969 7.933594 9.542969 C 10.296875 9.542969 12.542969 8.875 14.589844 7.671875 L 14.589844 5.8125 Z M 7.933594 10.800781 C 6.460938 10.800781 5.179688 11.605469 4.492188 12.796875 C 5.382812 13.28125 6.597656 13.582031 7.933594 13.582031 C 9.273438 13.582031 10.484375 13.28125 11.375 12.796875 C 10.691406 11.605469 9.40625 10.800781 7.933594 10.800781 Z M 7.933594 10.800781"/></clipPath></defs><g id="surface1"><path style="stroke:none;fill-rule:nonzero;fill:url(#linear0)" d="M 8 14.984375 C 4.507812 14.984375 0.75 12.800781 0.75 8 C 0.75 3.199219 4.507812 1.015625 8 1.015625 C 9.933594 1.015625 11.726562 1.652344 13.046875 2.816406 C 14.488281 4.089844 15.25 5.882812 15.25 8 C 15.25 10.109375 14.488281 11.894531 13.046875 13.171875 C 11.722656 14.34375 9.929688 14.984375 8 14.984375 Z M 8 14.984375"/><path style="stroke:none;fill-rule:nonzero;fill:#eb8f00;fill-opacity:1" d="M 8 1.265625 C 9.875 1.265625 11.609375 1.882812 12.878906 3.003906 C 14.265625 4.230469 15 5.957031 15 8 C 15 10.035156 14.265625 11.757812 12.878906 12.984375 C 11.601562 14.113281 9.871094 14.734375 8 14.734375 C 6.121094 14.734375 4.386719 14.121094 3.121094 13.007812 C 1.734375 11.789062 1 10.058594 1 8 C 1 5.933594 1.734375 4.199219 3.121094 2.980469 C 4.382812 1.875 6.117188 1.265625 8 1.265625 M 8 0.765625 C 4.105469 0.765625 0.5 3.265625 0.5 8 C 0.5 12.710938 4.105469 15.234375 8 15.234375 C 11.894531 15.234375 15.5 12.644531 15.5 8 C 15.5 3.328125 11.894531 0.765625 8 0.765625 Z M 8 0.765625"/><g clip-path="url(#clip1)" clip-rule="nonzero"><g clip-path="url(#clip2)" clip-rule="nonzero"><path style="stroke:none;fill-rule:nonzero;fill:#242424;fill-opacity:1" d="M 7.933594 7.816406 C 5.96875 7.816406 4.144531 7.652344 2.621094 7.371094 C 2.246094 7.300781 1.910156 7.632812 1.988281 8.007812 C 2.492188 10.484375 4.929688 12.519531 7.929688 12.519531 C 11.214844 12.519531 13.421875 10.417969 13.882812 8 C 13.953125 7.625 13.621094 7.300781 13.246094 7.371094 C 11.722656 7.652344 9.898438 7.816406 7.933594 7.816406 Z M 7.933594 7.816406"/></g></g><g clip-path="url(#clip3)" clip-rule="nonzero"><g clip-path="url(#clip4)" clip-rule="nonzero"><path style="stroke:none;fill-rule:nonzero;fill:#fff;fill-opacity:1" d="M 14.589844 7.671875 L 14.589844 5.8125 L 1.28125 5.8125 L 1.28125 7.671875 C 3.328125 8.875 5.574219 9.542969 7.933594 9.542969 C 10.296875 9.542969 12.542969 8.875 14.589844 7.671875 Z M 14.589844 7.671875"/></g></g><g clip-path="url(#clip5)" clip-rule="nonzero"><g clip-path="url(#clip6)" clip-rule="nonzero"><path style="stroke:none;fill-rule:nonzero;fill:#ed7770;fill-opacity:1" d="M 7.933594 10.800781 C 6.460938 10.800781 5.179688 11.605469 4.492188 12.796875 C 5.382812 13.28125 6.597656 13.582031 7.933594 13.582031 C 9.273438 13.582031 10.484375 13.28125 11.375 12.796875 C 10.691406 11.605469 9.40625 10.800781 7.933594 10.800781 Z M 7.933594 10.800781"/></g></g><g clip-path="url(#clip7)" clip-rule="nonzero"><g clip-path="url(#clip8)" clip-rule="nonzero"><g clip-path="url(#clip9)" clip-rule="nonzero"><path style="stroke:none;fill-rule:nonzero;fill:#eb8f00;fill-opacity:1" d="M 13.347656 7.886719 C 13.359375 7.886719 13.367188 7.894531 13.367188 7.902344 C 13.15625 9.007812 12.542969 10.019531 11.636719 10.757812 C 10.640625 11.5625 9.359375 11.992188 7.929688 11.992188 C 6.625 11.992188 5.351562 11.558594 4.347656 10.777344 C 3.382812 10.023438 2.726562 9.003906 2.503906 7.898438 C 2.503906 7.894531 2.511719 7.886719 2.523438 7.886719 L 2.527344 7.886719 C 4.132812 8.183594 6.003906 8.339844 7.933594 8.339844 C 9.863281 8.339844 11.734375 8.183594 13.34375 7.886719 C 13.34375 7.886719 13.347656 7.886719 13.347656 7.886719 M 13.347656 7.359375 C 13.316406 7.359375 13.28125 7.363281 13.246094 7.371094 C 11.726562 7.652344 9.898438 7.816406 7.933594 7.816406 C 5.96875 7.816406 4.144531 7.652344 2.621094 7.371094 C 2.589844 7.363281 2.554688 7.359375 2.519531 7.359375 C 2.1875 7.359375 1.917969 7.667969 1.988281 8.007812 C 2.492188 10.484375 4.929688 12.519531 7.929688 12.519531 C 11.214844 12.519531 13.421875 10.417969 13.882812 8 C 13.949219 7.660156 13.679688 7.359375 13.347656 7.359375 Z M 13.347656 7.359375"/></g></g></g><path style="stroke:none;fill-rule:nonzero;fill:#242424;fill-opacity:1" d="M 6.105469 5.886719 C 6.105469 5.886719 6.097656 5.875 6.082031 5.859375 C 6.070312 5.84375 6.050781 5.816406 6.027344 5.789062 C 6.007812 5.765625 5.984375 5.742188 5.953125 5.710938 C 5.925781 5.679688 5.890625 5.648438 5.859375 5.613281 C 5.824219 5.582031 5.785156 5.546875 5.75 5.519531 C 5.710938 5.488281 5.671875 5.464844 5.640625 5.449219 C 5.605469 5.425781 5.574219 5.421875 5.550781 5.414062 C 5.542969 5.410156 5.53125 5.410156 5.523438 5.410156 C 5.519531 5.410156 5.515625 5.410156 5.515625 5.410156 L 5.503906 5.410156 C 5.519531 5.410156 5.46875 5.414062 5.539062 5.410156 L 5.46875 5.414062 C 5.449219 5.414062 5.460938 5.414062 5.460938 5.414062 C 5.464844 5.414062 5.46875 5.414062 5.472656 5.414062 C 5.484375 5.410156 5.472656 5.414062 5.46875 5.414062 C 5.464844 5.414062 5.457031 5.414062 5.453125 5.417969 C 5.433594 5.421875 5.402344 5.429688 5.367188 5.449219 C 5.332031 5.46875 5.296875 5.488281 5.257812 5.519531 C 5.21875 5.546875 5.183594 5.582031 5.148438 5.613281 C 5.078125 5.683594 5.019531 5.75 4.976562 5.796875 C 4.933594 5.847656 4.910156 5.878906 4.910156 5.878906 L 4.878906 5.914062 C 4.699219 6.121094 4.367188 6.160156 4.140625 5.992188 C 3.984375 5.878906 3.917969 5.703125 3.945312 5.535156 C 3.945312 5.535156 3.953125 5.480469 3.980469 5.386719 C 4.007812 5.296875 4.054688 5.160156 4.144531 5.003906 C 4.234375 4.851562 4.367188 4.667969 4.589844 4.5 C 4.699219 4.417969 4.832031 4.335938 4.988281 4.28125 C 5.027344 4.265625 5.066406 4.253906 5.109375 4.246094 C 5.152344 4.234375 5.1875 4.222656 5.246094 4.214844 L 5.328125 4.203125 C 5.355469 4.199219 5.390625 4.195312 5.394531 4.195312 L 5.46875 4.191406 L 5.570312 4.191406 L 5.640625 4.199219 C 5.683594 4.203125 5.726562 4.207031 5.769531 4.214844 C 5.855469 4.234375 5.941406 4.253906 6.019531 4.28125 C 6.175781 4.335938 6.308594 4.417969 6.417969 4.5 C 6.640625 4.667969 6.769531 4.851562 6.863281 5.003906 C 6.910156 5.082031 6.941406 5.15625 6.96875 5.21875 C 6.996094 5.28125 7.015625 5.347656 7.03125 5.394531 C 7.046875 5.445312 7.046875 5.46875 7.050781 5.492188 C 7.054688 5.511719 7.058594 5.523438 7.058594 5.523438 C 7.105469 5.789062 6.910156 6.039062 6.621094 6.085938 C 6.417969 6.117188 6.21875 6.03125 6.105469 5.886719 Z M 6.105469 5.886719"/><path style="stroke:none;fill-rule:nonzero;fill:#242424;fill-opacity:1" d="M 11.03125 5.886719 C 11.03125 5.886719 11.023438 5.875 11.011719 5.859375 C 11 5.84375 10.980469 5.816406 10.957031 5.789062 C 10.9375 5.765625 10.914062 5.742188 10.886719 5.710938 C 10.855469 5.679688 10.824219 5.648438 10.789062 5.613281 C 10.753906 5.582031 10.714844 5.546875 10.679688 5.519531 C 10.640625 5.488281 10.601562 5.464844 10.570312 5.449219 C 10.535156 5.425781 10.503906 5.421875 10.484375 5.414062 C 10.472656 5.410156 10.460938 5.410156 10.453125 5.410156 C 10.453125 5.410156 10.449219 5.410156 10.445312 5.410156 L 10.433594 5.410156 C 10.449219 5.410156 10.398438 5.414062 10.46875 5.410156 L 10.398438 5.414062 C 10.378906 5.414062 10.390625 5.414062 10.390625 5.414062 C 10.394531 5.414062 10.398438 5.414062 10.402344 5.414062 C 10.414062 5.410156 10.402344 5.414062 10.398438 5.414062 C 10.394531 5.414062 10.390625 5.414062 10.382812 5.417969 C 10.363281 5.421875 10.332031 5.429688 10.296875 5.449219 C 10.265625 5.46875 10.226562 5.488281 10.1875 5.519531 C 10.148438 5.546875 10.113281 5.582031 10.078125 5.613281 C 10.007812 5.683594 9.949219 5.75 9.90625 5.796875 C 9.863281 5.847656 9.839844 5.878906 9.839844 5.878906 L 9.808594 5.914062 C 9.628906 6.121094 9.296875 6.160156 9.070312 5.992188 C 8.914062 5.878906 8.847656 5.703125 8.875 5.535156 C 8.875 5.535156 8.886719 5.480469 8.910156 5.386719 C 8.9375 5.296875 8.984375 5.160156 9.074219 5.003906 C 9.167969 4.851562 9.296875 4.667969 9.519531 4.5 C 9.628906 4.417969 9.761719 4.335938 9.917969 4.28125 C 9.957031 4.265625 9.996094 4.253906 10.039062 4.246094 C 10.082031 4.234375 10.117188 4.222656 10.175781 4.214844 L 10.257812 4.203125 C 10.285156 4.199219 10.320312 4.195312 10.328125 4.195312 L 10.398438 4.191406 L 10.5 4.191406 L 10.570312 4.199219 C 10.613281 4.203125 10.65625 4.207031 10.699219 4.214844 C 10.785156 4.234375 10.871094 4.253906 10.949219 4.28125 C 11.105469 4.335938 11.238281 4.417969 11.347656 4.5 C 11.570312 4.667969 11.703125 4.851562 11.792969 5.003906 C 11.839844 5.082031 11.871094 5.15625 11.898438 5.21875 C 11.925781 5.28125 11.945312 5.347656 11.960938 5.394531 C 11.976562 5.445312 11.976562 5.46875 11.980469 5.492188 C 11.984375 5.511719 11.988281 5.523438 11.988281 5.523438 C 12.035156 5.789062 11.839844 6.039062 11.550781 6.085938 C 11.34375 6.117188 11.144531 6.03125 11.03125 5.886719 Z M 11.03125 5.886719"/></g></svg>

<svg xmlns="http://www.w3.org/2000/svg" width="16pt" height="16pt" viewBox="0 0 16 16"><defs><clipPath id="b"><path d="M1 7h13v6H1Zm0 0"/></clipPath><clipPath id="c"><path d="M7.934 7.816c-1.965 0-3.79-.164-5.313-.445a.542.542 0 0 0-.633.637c.504 2.476 2.942 4.512 5.942 4.512 3.285 0 5.492-2.102 5.953-4.52a.542.542 0 0 0-.637-.629c-1.523.281-3.348.445-5.312.445m0 0"/></clipPath><clipPath id="d"><path d="M1 7h13v3H1Zm0 0"/></clipPath><clipPath id="e"><path d="M7.934 7.816c-1.965 0-3.79-.164-5.313-.445a.542.542 0 0 0-.633.637c.504 2.476 2.942 4.512 5.942 4.512 3.285 0 5.492-2.102 5.953-4.52a.542.542 0 0 0-.637-.629c-1.523.281-3.348.445-5.312.445m0 0"/></clipPath><clipPath id="f"><path d="M4 10h8v3H4Zm0 0"/></clipPath><clipPath id="g"><path d="M7.934 7.816c-1.965 0-3.79-.164-5.313-.445a.542.542 0 0 0-.633.637c.504 2.476 2.942 4.512 5.942 4.512 3.285 0 5.492-2.102 5.953-4.52a.542.542 0 0 0-.637-.629c-1.523.281-3.348.445-5.312.445m0 0"/></clipPath><clipPath id="h"><path d="M1 7h13v6H1Zm0 0"/></clipPath><clipPath id="i"><path d="M7.934 7.816c-1.965 0-3.79-.164-5.313-.445a.542.542 0 0 0-.633.637c.504 2.476 2.942 4.512 5.942 4.512 3.285 0 5.492-2.102 5.953-4.52a.542.542 0 0 0-.637-.629c-1.523.281-3.348.445-5.312.445m0 0"/></clipPath><clipPath id="j"><path d="M1.281 5.813v1.859c2.047 1.203 4.293 1.871 6.653 1.871 2.363 0 4.609-.668 6.656-1.871v-1.86ZM7.934 10.8a3.97 3.97 0 0 0-3.442 1.996c.89.484 2.106.785 3.442.785 1.34 0 2.55-.3 3.441-.785A3.97 3.97 0 0 0 7.934 10.8m0 0"/></clipPath><linearGradient id="a" x1="64" x2="64" y1="19.717" y2="107.7" gradientTransform="scale(.125)" gradientUnits="userSpaceOnUse"><stop offset=".5" style="stop-color:#fee133;stop-opacity:1"/><stop offset=".612" style="stop-color:#fede32;stop-opacity:1"/><stop offset=".708" style="stop-color:#fcd32f;stop-opacity:1"/><stop offset=".797" style="stop-color:#fac12b;stop-opacity:1"/><stop offset=".883" style="stop-color:#f7a924;stop-opacity:1"/><stop offset=".9" style="stop-color:#f6a323;stop-opacity:1"/></linearGradient></defs><path d="M8 14.984C4.508 14.984.75 12.801.75 8 .75 3.2 4.508 1.016 8 1.016c1.934 0 3.727.636 5.047 1.8C14.488 4.09 15.25 5.883 15.25 8c0 2.11-.762 3.895-2.203 5.172C11.723 14.344 9.93 14.984 8 14.984m0 0" style="stroke:none;fill-rule:nonzero;fill:url(#a)"/><path d="M8 1.266c1.875 0 3.61.617 4.879 1.738C14.266 4.23 15 5.957 15 8c0 2.035-.734 3.758-2.121 4.984-1.277 1.13-3.008 1.75-4.879 1.75-1.879 0-3.613-.613-4.879-1.726C1.734 11.789 1 10.058 1 8c0-2.066.734-3.8 2.121-5.02C4.383 1.875 6.117 1.266 8 1.266m0-.5C4.105.766.5 3.266.5 8c0 4.71 3.605 7.234 7.5 7.234s7.5-2.59 7.5-7.234C15.5 3.328 11.895.766 8 .766m0 0" style="stroke:none;fill-rule:nonzero;fill:#eb8f00;fill-opacity:1"/><g clip-path="url(#b)"><g clip-path="url(#c)"><path d="M7.934 7.816c-1.965 0-3.79-.164-5.313-.445a.542.542 0 0 0-.633.637c.504 2.476 2.942 4.512 5.942 4.512 3.285 0 5.492-2.102 5.953-4.52a.542.542 0 0 0-.637-.629c-1.523.281-3.348.445-5.312.445m0 0" style="stroke:none;fill-rule:nonzero;fill:#242424;fill-opacity:1"/></g></g><g clip-path="url(#d)"><g clip-path="url(#e)"><path d="M14.59 7.672v-1.86H1.28v1.86c2.047 1.203 4.293 1.871 6.653 1.871 2.363 0 4.609-.668 6.656-1.871m0 0" style="stroke:none;fill-rule:nonzero;fill:#fff;fill-opacity:1"/></g></g><g clip-path="url(#f)"><g clip-path="url(#g)"><path d="M7.934 10.8a3.97 3.97 0 0 0-3.442 1.997c.89.484 2.106.785 3.442.785 1.34 0 2.55-.3 3.441-.785A3.97 3.97 0 0 0 7.934 10.8m0 0" style="stroke:none;fill-rule:nonzero;fill:#ed7770;fill-opacity:1"/></g></g><g clip-path="url(#h)"><g clip-path="url(#i)"><g clip-path="url(#j)"><path d="M13.348 7.887c.011 0 .02.008.02.015a4.88 4.88 0 0 1-1.731 2.856c-.996.805-2.278 1.234-3.707 1.234a5.86 5.86 0 0 1-3.582-1.215c-.965-.754-1.621-1.773-1.844-2.879 0-.003.008-.011.02-.011h.003c1.606.297 3.477.453 5.407.453s3.8-.156 5.41-.453zm0-.528a.5.5 0 0 0-.102.012c-1.52.281-3.348.445-5.312.445s-3.79-.164-5.313-.445a.544.544 0 0 0-.633.637c.504 2.476 2.942 4.512 5.942 4.512 3.285 0 5.492-2.102 5.953-4.52a.542.542 0 0 0-.535-.64m0 0" style="stroke:none;fill-rule:nonzero;fill:#eb8f00;fill-opacity:1"/></g></g></g><path d="M6.105 5.887q0-.002-.023-.028c-.012-.015-.031-.043-.055-.07q-.029-.033-.074-.078c-.027-.031-.062-.063-.094-.098-.035-.031-.074-.066-.109-.093a.6.6 0 0 0-.11-.07c-.035-.024-.066-.028-.09-.036-.007-.004-.019-.004-.027-.004h-.019c.016 0-.035.004.035 0l-.07.004H5.46h.012c.011-.004 0 0-.004 0q-.008-.001-.016.004a.3.3 0 0 0-.086.031 1 1 0 0 0-.11.07c-.038.028-.073.063-.109.094-.07.07-.128.137-.171.184-.043.05-.067.082-.067.082l-.031.035a.557.557 0 0 1-.738.078.47.47 0 0 1-.196-.457s.008-.055.035-.148a1.687 1.687 0 0 1 .61-.887c.11-.082.242-.164.398-.219a.6.6 0 0 1 .121-.035c.043-.012.079-.023.137-.031l.082-.012.067-.008.074-.004h.101l.07.008q.066.005.13.016c.085.02.171.039.25.066.156.055.289.137.398.219.223.168.352.352.445.504.047.078.078.152.106.215.027.062.047.129.062.176.016.05.016.074.02.097q.007.03.008.031c.046.266-.149.516-.438.563a.56.56 0 0 1-.516-.2M11.031 5.887l-.02-.028c-.011-.015-.03-.043-.054-.07l-.07-.078-.098-.098c-.035-.031-.074-.066-.11-.093a.6.6 0 0 0-.109-.07c-.035-.024-.066-.028-.086-.036q-.018-.005-.03-.004h-.02c.015 0-.036.004.035 0l-.07.004h-.008.011c.012-.004 0 0-.004 0a.03.03 0 0 0-.015.004.3.3 0 0 0-.086.031c-.031.02-.07.04-.11.07-.039.028-.074.063-.109.094-.07.07-.129.137-.172.184-.043.05-.066.082-.066.082l-.031.035a.557.557 0 0 1-.739.078.47.47 0 0 1-.195-.457l.035-.148a1.744 1.744 0 0 1 .61-.887c.109-.082.242-.164.398-.219a.6.6 0 0 1 .121-.035c.043-.012.078-.023.137-.031l.082-.012.07-.008.07-.004h.102l.07.008q.064.005.13.016c.085.02.171.039.25.066.155.055.288.137.398.219.222.168.355.352.445.504.047.078.078.152.105.215.028.062.047.129.063.176.016.05.016.074.02.097q.006.03.007.031c.047.266-.148.516-.437.563a.56.56 0 0 1-.52-.2m0 0" style="stroke:none;fill-rule:nonzero;fill:#242424;fill-opacity:1"/></svg>
